X:1
T:It Is Well With My Soul
T:It Is Well With My Soul
T:VILLE DUHAVRE, 11 8 11 9 with Refrain
T:Philip P. Bliss 1838-1876
T:Horation G. Spafford, 1828-1888
C:Philip P. Bliss 1838-1876
Z:Horation G. Spafford, 1828-1888
%%score 1 2 { ( 3 4 ) | ( 5 6 ) }
L:1/8
Q:1/4=82
M:4/4
K:C
V:1 treble-8 nm="Tenor" snm="T."
V:2 bass nm="Bass" snm="B."
V:3 treble nm="Organ" snm="Org."
V:4 treble 
V:5 bass 
V:6 bass 
V:1
 G2 | G4 F2 E2 | E4 D2 E2 | (F2 A2) G2 F2 | E6 G2 | c4 B2 A2 | A4 G2 ^F2 | G6 G2 | c4 c2 B2 | %9
w: When|peace like a|riv- er at-|tend- * eth my|way, When|sor- rows like|sea bil- lows|roll; What-|ev- er my|
w: Though|Sa- tan should|buf- fet, though|tri- * als should|come, Let|this blest as-|sur- ance con-|trol; That|Christ has re-|
 A4 A2 A2 | d4 d2 c2 | B4 A2 G2 | c4 c2 c2 | c4 B3 c | !fermata!c4 ||"^Refrain" G2 G2 | G8- | %17
w: lot, Thou hast|taught me to|say, "It is|well, it is|well with my|soul."|It is|well|
w: gard- ed my|help- less es-|state, And has|shed his own|blood for my|soul.|||
 G4 G2 G2 | G8- | G4 E2 G2 | A4 A2 c2 | c4 B3 c | !fermata!c4 z2 :| %23
w: * with my|soul;|* it is|well, it is|well with my|soul.|
w: ||||||
V:2
 C,2 | C,4 C,2 C,2 | G,4 F,2 E,2 | D,4 G,,2 G,,2 | C,6 C,2 | A,,4 B,,2 C,2 | C,4 D,2 D,2 | %7
w: When|peace like a|riv- er at-|tend- eth my|way, When|sor- rows like|sea bil- lows|
w: Though|Sat- tan should|buf- fet, though|tri- als should|come, Let|this blest as-|sur- ance con-|
 G,,6 G,2 | C,4 C,2 E,2 | F,4 F,2 E,2 | D,4 D,2 D,2 | G,4 G,2 G,2 | E,4 E,2 F,2 | G,4 G,,3 G,, | %14
w: roll; What-|ev- er my|lot, Thou hast|taught me to|say, "It is|well, it is|well with my|
w: trol; That|Christ has re-|gard- ed my|help- less es-|state, And has|shed his own|blod for my|
 !fermata!C,4 || z4 | z4 C,2 E,2 | G,4 z4 | z4 G,,2 G,,2 | C,4 C,2 C,2 | F,4 F,2 F,2 | %21
w: soul."||It is|well|with my|soul; it is|well, it is|
w: soul.|||||||
 G,4 G,,3 G,, | !fermata!C,4 z2 :| %23
w: well with my|soul.|
w: ||
V:3
 G2 | G4 F2 E2 | E4 D2 E2 | (F2 A2) G2 F2 | E6 G2 | c4 B2 A2 | A4 G2 ^F2 | G6 G2 | c4 c2 B2 | %9
w: When|peace like a|riv- er at-|tend- * eth my|way, When|sor- rows like|sea bil- lows|roll; What-|ev- er my|
w: Though|Sa- tan should|buf- fet, though|tri- * als should|come, Let|this blest as-|sur- ance con-|trol; That|Christ has re-|
 A4 A2 A2 | d4 d2 c2 | B4 A2 G2 | c4 c2 c2 | c4 B3 c | !fermata!c4 ||"^Refrain" G2 G2 | G8- | %17
w: lot, Thou hast|taught me to|say, "It is|well, it is|well with my|soul."|It is|well|
w: gard- ed my|help- less es-|state, And has|shed his own|blood for my|soul.|||
 G4 G2 G2 | G8- | G4 E2 G2 | A4 A2 c2 | c4 B3 c | !fermata!c4 z2 :| %23
w: * with my|soul;|* it is|well, it is|well with my|soul.|
w: ||||||
V:4
 E2 | E4 D2 C2 | C4 B,2 C2 | B,4 B,2 D2 | C6 E2 | E4 D2 C2 | E4 D2 D2 | D6 F2 | E4 E2 G2 | %9
 F4 A2 G2 | ^F4 F2 F2 | G4 G2 G2 | G4 C2 D2 | E4 D3 E | E4 || x4 | z4 E2 E2 | D4 z4 | z4 D2 F2 | %19
 E4 C2 E2 | F4 F2 F2 | E4 D3 E | E4 z2 :| %23
V:5
 C2 | C4 G,2 G,2 | G,4 G,2 G,2 | G,4 G,2 G,2 | G,6 G,2 | A,4 ^G,2 A,2 | C4 B,2 A,2 | B,6 B,2 | %8
w: ||||||||
 C4 C2 C2 | C4 C2 ^C2 | D4 A,2 D2 | D4 C2 B,2 | C4 G,2 A,2 | G,4 G,3 G, | !fermata!G,4 || z4 | %16
w: ||||||||
 z4 G,2 C2 | B,4 z4 | z4 B,2 D2 | C4 G,2 C2 | C4 C2 A,2 | G,4 G,3 G, | !fermata!G,4 z2 :| %23
w: It is|well|with my|soul. * *||||
V:6
 C,2 | C,4 C,2 (C,E,) | G,4 F,2 E,2 | D,4 G,,2 G,,2 | C,6 C,2 | A,,4 B,,2 C,2 | C,4 D,2 D,2 | %7
 G,,6 G,2 | C,4 C,2 E,2 | F,4 F,2 E,2 | D,4 D,2 D,2 | G,4 G,2 (G,F,) | E,4 E,2 F,2 | G,4 G,,3 G,, | %14
 C,4 || x4 | x4 C,2 E,2 | G,4 x4 | x4 G,,2 G,,2 | C,4 C,2 C,2 | F,4 F,2 F,2 | G,4 G,,3 G,, | %22
 C,4 z2 :| %23

